svg/email_box.svg

<svg xmlns="http://www.w3.org/2000/svg" viewBox="0 0 24 24"><path d="M5 3a2 2 0 0 0-2 2v14a2 2 0 0 0 2 2h14a2 2 0 0 0 2-2V5a2 2 0 0 0-2-2zm1.4 3.5h11.2c.77 0 1.4.62 1.4 1.4v8.2a1.4 1.4 0 0 1-1.4 1.4H6.4c-.77 0-1.4-.63-1.4-1.4V7.9c0-.78.62-1.4 1.4-1.4M6 8v2l6 4 6-4V8l-6 4z"/></svg>

<?xml version="1.0" encoding="UTF-8"?><!DOCTYPE svg PUBLIC "-//W3C//DTD SVG 1.1//EN" "http://www.w3.org/Graphics/SVG/1.1/DTD/svg11.dtd"><svg xmlns="http://www.w3.org/2000/svg" xmlns:xlink="http://www.w3.org/1999/xlink" version="1.1" id="mdi-email-box" width="24" height="24" viewBox="0 0 24 24"><path d="M5,3A2,2 0 0,0 3,5V19A2,2 0 0,0 5,21H19A2,2 0 0,0 21,19V5A2,2 0 0,0 19,3H5M6.4,6.5H17.6C18.37,6.5 19,7.12 19,7.9V16.1A1.4,1.4 0 0,1 17.6,17.5H6.4C5.63,17.5 5,16.87 5,16.1V7.9C5,7.12 5.62,6.5 6.4,6.5M6,8V10L12,14L18,10V8L12,12L6,8Z" /></svg>
